material/.icons/material/alpha-t-circle.svg

<svg xmlns="http://www.w3.org/2000/svg" viewBox="0 0 24 24"><path d="M9 7v2h2v8h2V9h2V7H9m3-5a10 10 0 0110 10 10 10 0 01-10 10A10 10 0 012 12 10 10 0 0112 2z"/></svg>

<?xml version="1.0" encoding="UTF-8"?><!DOCTYPE svg PUBLIC "-//W3C//DTD SVG 1.1//EN" "http://www.w3.org/Graphics/SVG/1.1/DTD/svg11.dtd"><svg xmlns="http://www.w3.org/2000/svg" xmlns:xlink="http://www.w3.org/1999/xlink" version="1.1" id="mdi-alpha-t-circle" width="24" height="24" viewBox="0 0 24 24"><path d="M9,7V9H11V17H13V9H15V7H9M12,2A10,10 0 0,1 22,12A10,10 0 0,1 12,22A10,10 0 0,1 2,12A10,10 0 0,1 12,2Z" /></svg>
